!!!COM: Fanny (Mendelssohn) Hensel
!!!CNT: Deutsch
!!!TXO: Deutsch
!!!OTL: "Vorwurf"
!!!LYR: Lenau, Nikolaus
!!!OPR: 
!!!OPS: Op. 10
!!!ONM: No. 2
!!!ENC: Emily Thomas
!!!YOR: Hensel: Ausgewa2hlte Lieder fu2r Singstimme und Klavier
!!!YOR: Breitkopf & Hartel, 1994
!!!ODT: 1846/
!!NB: Vocal melody and text encoded.
**kern	**silbe
=1-	=1
*clefG2	*
*k[f#c#g#d#a#]	*
*M4/4	*
*MM60	*
1r	.
=2	=2
2r	.
4r	.
{4g#	{Du
=3	=3
2ee	klagst,
4r	.
4dd#	dass
=4	=4
4cc#	ban-
4b	-ge
4an	Weh-
4g#	-mut
=5	=5
4f#	dich
2ee	|
8dd#	be-
8cc#	|
=6	=6
4b#}	-schleicht,}
4r	.
4r	.
{4g#	{weil
=7	=7
4an	sich
4a#	der
4.cc#	Wald
8an	ent-
=8	=8
4g#	-laubt,
4r	.
4r	.
4b	und
=9	=9
4b#	u2-
4cc#	-ber
4.ee	dei-
8cc#	-nem
=10	=10
4b#	Haupt
8r	.
8g#	da-
8bn	-hin,
8an}	|}
8r	.
{8an	{da-
=11	=11
8an	-hin
8g#	|
8r	.
8g#	der
8g#	Wan-
8f#	|
8r	.
8f#	-der-
=12	=12
8f#	-zug
8e	|
8d#	der
8c#	|
4.ee	Vo2-
8cc#	-gel
=13	=13
4b#}	streicht;}
4r	.
4r	.
{4g#	{du
=14	=14
2an	klagst,
4r	.
4a#	du
=15	=15
2.b	klagst,
4b#	weil
=16	=16
4.cc#	sich
8cc#	der
8dd#	Wald
8cc#	|
8b	ent-
8an	|
=17	=17
4g#	-laubt,
2f##}	|}
{4f##	{und
=18	=18
4.dd#	u2-
8dd#	-ber
8ee	dei-
8dd#	|
8cc#	-nem
8b	|
=19	=19
4a#	Haupt
2an	|
8an	da-
8g#	|
=20	=20
4g#}	-hin,}
4r	.
4r	.
{8ddn	{da-
8cc#	|
=21	=21
2cc#	-hin
4r	.
4cc#	der
=22	=22
2gg#	Wan-
8ff#	|
8ee	|
8dd#	-der-
8cc#	|
=23	=23
8b#	-zug
8dd#	|
8cc#	der
8an	|
4.g#	Vo2-
8b#	-gel
=24	=24
4cc#}	streicht.}
4r	.
2r	.
=25	=25
2r	.
{4dd#	{O
8.f#	kla-
16g#	-ge
=26	=26
4f#	nicht,
4e#}	|}
2r	.
=27	=27
2r	.
{4ee#	o
8.g#	kla-
16a#	-ge
=28	=28
4g#	nicht,
4f#	|
4r	.
4a#	bist
=29	=29
4.a#	sel-
8a#	-ber
4dd#	wan-
8b	-del-
8g#	|
=30	=30
4f#	-haft,
4e#	|
4cc#	denkst
8f#	du
8en	der
=31	=31
4.e	Lie-
8d#	-bes-
4d#}	-glut?}
4r	.
=32	=32
2r	.
{4dd#	{denkst
8.b	du
16a#	der
=33	=33
4.a#	Lie-
8g#	-bes-
2g#}	-glut?}
=34	=34
4r	.
{2gg#	{denkst
8cc##	du
8cc##	der
=35	=35
2.cc##	Lie-
4dd#	-bes-
=36	=36
2dd#}	-glut?}
4r	.
{4ee	{Wie
=37	=37
4dd#	nun
4a#	so
4b	trau-
4g#	-rig
=38	=38
4f##	ruht
4d#	in
4e	dei-
4c##	-ner
=39	=39
4d#	Brust
4d#	die
4b	mu2-
8a#	-de
8g#	|
=40	=40
2g#	Lei-
4.f##	|
8g#	-den-
=41	=41
4g#}	-schaft!}
4r	.
4r	.
{4g#	{wie
=42	=42
4g#	nun
4g#	so
4dd#	trau-
4cc#	-rig
=43	=43
4b#	ruht
4an	in
4g#	dei-
4f##	-ner
=44	=44
2.f#	Brust
4f##	die
=45	=45
2.g#	mu2-
4g##}	-de,}
=46	=46
{4a#	{mu2-
2b	|
8a#	-de
8g#	|
=47	=47
2g#	Lei-
4.f##	|
8g#	-den-
=48	=48
2g#}	-schaft!}
2r	.
==	==
*-	*-
